wolterwythe/images/apple.svg

<svg width="28" height="28" viewBox="0 0 28 28" fill="none" xmlns="http://www.w3.org/2000/svg">
<circle cx="14" cy="14" r="14" fill="url(#paint0_linear_779_3076)"/>
<path d="M18.2766 21.514C17.4474 22.3759 16.542 22.2398 15.6705 21.8315C14.7482 21.4142 13.9021 21.396 12.9291 21.8315C11.7106 22.394 11.0676 22.2307 10.3399 21.514C6.21078 16.9503 6.81999 10.0004 11.5076 9.74637C12.6498 9.80988 13.4452 10.4178 14.1136 10.4722C15.1121 10.2545 16.0682 9.62842 17.1343 9.71008C18.412 9.81895 19.3766 10.3633 20.0112 11.3432C17.3712 13.0398 17.9974 16.7688 20.4173 17.8122C19.935 19.1731 19.3089 20.525 18.2681 21.523L18.2766 21.514ZM14.029 9.69193C13.9021 7.66867 15.4336 5.99925 17.1936 5.83594C17.4389 8.17675 15.2136 9.91876 14.029 9.69193Z" fill="#090013"/>
<defs>
<linearGradient id="paint0_linear_779_3076" x1="1.04308e-08" y1="14" x2="28.2826" y2="14.07" gradientUnits="userSpaceOnUse">
<stop stop-color="#4C27C1"/>
<stop offset="1" stop-color="#F761DF"/>
</linearGradient>
</defs>
</svg>

<svg width="28" height="28" viewBox="0 0 28 28" fill="none" xmlns="http://www.w3.org/2000/svg"><circle cx="14" cy="14" r="14" fill="url(#paint0_linear_779_3076)"/><path d="M18.277 21.514c-.83.862-1.735.726-2.607.317-.922-.417-1.768-.435-2.74 0-1.22.563-1.862.4-2.59-.317C6.21 16.95 6.82 10 11.508 9.746c1.142.064 1.937.672 2.606.726.998-.217 1.954-.844 3.02-.762 1.278.109 2.243.653 2.877 1.633-2.64 1.697-2.014 5.426.406 6.47-.482 1.36-1.108 2.712-2.149 3.71l.009-.009zM14.029 9.692c-.127-2.023 1.405-3.693 3.165-3.856.245 2.34-1.98 4.083-3.165 3.856z" fill="#090013"/><defs><linearGradient id="paint0_linear_779_3076" x1="0" y1="14" x2="28.283" y2="14.07" gradientUnits="userSpaceOnUse"><stop stop-color="#4C27C1"/><stop offset="1" stop-color="#F761DF"/></linearGradient></defs></svg>
